app/assets/images/icons/photo.svg

<?xml version="1.0" encoding="UTF-8" standalone="no"?>
<svg width="30px" height="30px" viewBox="0 0 30 30" version="1.1" xmlns="http://www.w3.org/2000/svg" xmlns:xlink="http://www.w3.org/1999/xlink">
    <!-- Generator: Sketch 3.7.2 (28276) - http://www.bohemiancoding.com/sketch -->
    <title>photo</title>
    <desc>Created with Sketch.</desc>
    <defs></defs>
    <g id="Icons" stroke="none" stroke-width="1" fill="none" fill-rule="evenodd">
        <g id="photo" fill="#050505">
            <path d="M9,6 L3.9992748,6 C1.78679466,6 0,7.79051625 0,9.99922997 L0,22.00077 C0,24.2075324 1.79053632,26 3.9992748,26 L26.0007252,26 C28.2132053,26 30,24.2094838 30,22.00077 L30,9.99922997 C30,7.79246765 28.2094637,6 26.0007252,6 L21,6 C21,5.44386482 20.5511774,5 19.9975267,5 L10.0024733,5 C9.45576096,5 9,5.44771525 9,6 L9,6 Z M2,9 C2,8.44771525 2.45127869,8 3.00329963,8 L26.9967004,8 C27.5508075,8 28,8.44386482 28,9 L28,10 L2,10 L2,9 L2,9 Z M15,23 C18.3137085,23 21,20.3137085 21,17 C21,13.6862915 18.3137085,11 15,11 C11.6862915,11 9,13.6862915 9,17 C9,20.3137085 11.6862915,23 15,23 L15,23 Z M15,21 C17.209139,21 19,19.209139 19,17 C19,14.790861 17.209139,13 15,13 C12.790861,13 11,14.790861 11,17 C11,19.209139 12.790861,21 15,21 L15,21 Z" id="Rectangle-8"></path>
        </g>
    </g>
</svg>

<?xml version="1.0" encoding="UTF-8" standalone="no"?>
<svg width="30" height="30" viewBox="0 0 30 30" xmlns="http://www.w3.org/2000/svg">
  <path d="M9 6H4c-2.213 0-4 1.79-4 4v12a4 4 0 0 0 4 4h22c2.213 0 4-1.79 4-4V10a4 4 0 0 0-4-4h-5c0-.556-.449-1-1.002-1h-9.996C9.456 5 9 5.448 9 6zM2 9c0-.552.451-1 1.003-1h23.994A1 1 0 0 1 28 9v1H2V9zm13 14a6 6 0 1 0 0-12 6 6 0 0 0 0 12zm0-2a4 4 0 1 0 0-8 4 4 0 0 0 0 8z" fill="#050505" fill-rule="evenodd"/>
</svg>
